X:88
T:Polonäs ur Andreas Dahlgrens notbok nr 88
S:Andreas Dahlgrens
R:Polska
O:Småland
B:Andreas Dahlgrens notbok
Z:Christian Fürst
M:3/4
L:1/8
K:F
|: FF/2G/2 AFAF | AA/2B/2 cAcA | cd/2e/2 f2 a2 | a/2g/2f/2g/2 f4 :|
|: f/2g/2a/2f/2 [cg][cg][cg][cg] | f/2g/2a/2f/2 [cg][cg][cg][cg] | fg/2a/2 ba/2g/2 ag/2f/2| c/2f/2e/2g/2 Tg2 f2 :|

